the-plus-addons-for-block-editor/assets/images/login-register/Button.svg

<svg xmlns="http://www.w3.org/2000/svg" width="1000" height="700" fill="none" viewBox="0 0 1000 700"><path fill="#fff" d="M0 0h1000v700H0z"/><path fill="#fff" d="M100 100h800v500H100z"/><path fill="#888" d="M349 306h303v88H349z"/><path fill="#fff" d="M391.818 361v-23.273h2.818V358.5h10.819v2.5h-13.637Zm24.727.364c-1.575 0-2.958-.375-4.147-1.125-1.182-.75-2.106-1.8-2.773-3.148-.659-1.349-.989-2.924-.989-4.727 0-1.819.33-3.406.989-4.762.667-1.356 1.591-2.409 2.773-3.159 1.189-.75 2.572-1.125 4.147-1.125 1.576 0 2.955.375 4.137 1.125 1.189.75 2.113 1.803 2.773 3.159.666 1.356 1 2.943 1 4.762 0 1.803-.334 3.378-1 4.727-.66 1.348-1.584 2.398-2.773 3.148-1.182.75-2.561 1.125-4.137 1.125Zm0-2.409c1.197 0 2.182-.307 2.955-.921.773-.614 1.345-1.42 1.716-2.42s.557-2.084.557-3.25c0-1.167-.186-2.254-.557-3.262-.371-1.007-.943-1.822-1.716-2.443s-1.758-.932-2.955-.932-2.181.311-2.954.932c-.773.621-1.345 1.436-1.716 2.443-.371 1.008-.557 2.095-.557 3.262 0 1.166.186 2.25.557 3.25.371 1 .943 1.806 1.716 2.42.773.614 1.757.921 2.954.921Zm19.049 8.954c-1.296 0-2.409-.167-3.341-.5-.932-.326-1.708-.757-2.33-1.295-.613-.531-1.102-1.099-1.466-1.705l2.137-1.5c.242.318.549.682.92 1.091.371.417.879.777 1.523 1.08.651.31 1.504.465 2.557.465 1.409 0 2.572-.34 3.488-1.022.917-.682 1.375-1.75 1.375-3.205v-3.545h-.227c-.197.318-.477.712-.841 1.182-.356.462-.871.875-1.545 1.238-.667.356-1.568.534-2.705.534-1.409 0-2.674-.333-3.795-1-1.114-.666-1.996-1.636-2.648-2.909-.644-1.273-.966-2.818-.966-4.636 0-1.788.315-3.345.943-4.671.629-1.333 1.504-2.363 2.625-3.091 1.122-.734 2.417-1.102 3.887-1.102 1.136 0 2.038.19 2.704.568.674.372 1.19.796 1.546 1.273.363.47.644.856.841 1.159h.272v-2.773h2.591V361.5c0 1.5-.341 2.72-1.023 3.659-.674.947-1.583 1.64-2.727 2.08-1.136.447-2.401.67-3.795.67Zm-.091-9.591c1.076 0 1.985-.246 2.727-.738.743-.493 1.307-1.201 1.693-2.125.387-.925.58-2.031.58-3.319 0-1.257-.19-2.367-.568-3.329-.379-.962-.94-1.716-1.682-2.262-.743-.545-1.659-.818-2.75-.818-1.137 0-2.083.288-2.841.864-.75.576-1.314 1.348-1.693 2.318-.371.97-.557 2.046-.557 3.227 0 1.212.189 2.284.568 3.216.386.925.955 1.652 1.705 2.182.757.523 1.697.784 2.818.784Zm24.727-20.591V361h-2.818v-23.273h2.818Zm7.969 12.773V361h-2.682v-17.455h2.591v2.728h.227a4.986 4.986 0 0 1 1.864-2.137c.833-.545 1.909-.818 3.227-.818 1.182 0 2.216.243 3.102.727.887.478 1.576 1.205 2.069 2.182.492.97.738 2.197.738 3.682V361h-2.682v-10.909c0-1.371-.356-2.439-1.068-3.205-.712-.772-1.689-1.159-2.932-1.159-.856 0-1.621.186-2.295.557-.667.371-1.193.913-1.58 1.625-.386.712-.579 1.576-.579 2.591Zm24.264-13.864-7.5 27.864h-2.454l7.5-27.864h2.454Zm16.27 6.909c-.136-1.151-.689-2.045-1.659-2.681-.97-.637-2.159-.955-3.568-.955-1.031 0-1.932.167-2.705.5-.765.333-1.363.792-1.795 1.375a3.29 3.29 0 0 0-.637 1.989c0 .621.148 1.155.443 1.602.304.439.69.807 1.16 1.102.469.288.962.527 1.477.716.515.182.989.33 1.42.443l2.364.637c.606.159 1.28.379 2.023.659.75.28 1.466.663 2.147 1.148a5.833 5.833 0 0 1 1.705 1.84c.447.75.67 1.671.67 2.762 0 1.257-.329 2.394-.988 3.409-.652 1.015-1.606 1.822-2.864 2.42-1.25.599-2.769.898-4.557.898-1.666 0-3.11-.269-4.329-.807-1.212-.538-2.167-1.288-2.864-2.25-.689-.962-1.079-2.079-1.17-3.352h2.909c.076.879.371 1.606.886 2.182.523.568 1.182.992 1.977 1.273a8.026 8.026 0 0 0 2.591.409c1.076 0 2.042-.175 2.898-.523.856-.356 1.534-.849 2.034-1.477.5-.637.75-1.379.75-2.228 0-.772-.216-1.401-.648-1.886-.431-.485-1-.879-1.704-1.182a17.908 17.908 0 0 0-2.284-.795l-2.864-.818c-1.818-.523-3.257-1.269-4.318-2.239-1.061-.97-1.591-2.239-1.591-3.807 0-1.303.352-2.439 1.057-3.409.712-.977 1.667-1.735 2.863-2.273 1.205-.545 2.55-.818 4.035-.818 1.5 0 2.833.269 4 .807 1.166.53 2.091 1.257 2.772 2.182a5.43 5.43 0 0 1 1.091 3.147h-2.727ZM516.048 361v-17.455h2.682V361h-2.682Zm1.364-20.364c-.523 0-.974-.178-1.352-.534a1.713 1.713 0 0 1-.557-1.284c0-.5.185-.928.557-1.284a1.905 1.905 0 0 1 1.352-.534c.523 0 .97.178 1.341.534.379.356.568.784.568 1.284s-.189.928-.568 1.284a1.867 1.867 0 0 1-1.341.534Zm13.276 27.273c-1.296 0-2.41-.167-3.341-.5-.932-.326-1.709-.757-2.33-1.295a7.104 7.104 0 0 1-1.466-1.705l2.137-1.5c.242.318.549.682.92 1.091.371.417.879.777 1.523 1.08.651.31 1.503.465 2.557.465 1.409 0 2.571-.34 3.488-1.022.917-.682 1.375-1.75 1.375-3.205v-3.545h-.227c-.197.318-.477.712-.841 1.182-.356.462-.871.875-1.545 1.238-.667.356-1.569.534-2.705.534-1.409 0-2.674-.333-3.795-1-1.114-.666-1.997-1.636-2.648-2.909-.644-1.273-.966-2.818-.966-4.636 0-1.788.314-3.345.943-4.671.629-1.333 1.504-2.363 2.625-3.091 1.121-.734 2.417-1.102 3.886-1.102 1.137 0 2.038.19 2.705.568.674.372 1.189.796 1.545 1.273.364.47.644.856.841 1.159h.273v-2.773h2.591V361.5c0 1.5-.341 2.72-1.023 3.659-.674.947-1.583 1.64-2.727 2.08-1.136.447-2.402.67-3.795.67Zm-.091-9.591c1.075 0 1.984-.246 2.727-.738.742-.493 1.307-1.201 1.693-2.125.386-.925.58-2.031.58-3.319 0-1.257-.19-2.367-.569-3.329-.378-.962-.939-1.716-1.681-2.262-.743-.545-1.659-.818-2.75-.818-1.137 0-2.084.288-2.841.864-.75.576-1.315 1.348-1.694 2.318-.371.97-.556 2.046-.556 3.227 0 1.212.189 2.284.568 3.216.386.925.954 1.652 1.704 2.182.758.523 1.697.784 2.819.784Zm15.227-7.818V361h-2.682v-17.455h2.591v2.728h.227a4.986 4.986 0 0 1 1.864-2.137c.833-.545 1.909-.818 3.227-.818 1.182 0 2.216.243 3.102.727.887.478 1.576 1.205 2.069 2.182.492.97.738 2.197.738 3.682V361h-2.682v-10.909c0-1.371-.356-2.439-1.068-3.205-.712-.772-1.689-1.159-2.932-1.159-.856 0-1.621.186-2.295.557-.667.371-1.193.913-1.58 1.625-.386.712-.579 1.576-.579 2.591Zm40.673-12.773h2.818v15.409c0 1.591-.375 3.012-1.125 4.262-.742 1.242-1.791 2.223-3.147 2.943-1.356.712-2.947 1.068-4.773 1.068-1.826 0-3.417-.356-4.773-1.068-1.356-.72-2.409-1.701-3.159-2.943-.742-1.25-1.114-2.671-1.114-4.262v-15.409h2.819v15.182c0 1.136.25 2.148.75 3.034.5.879 1.212 1.572 2.136 2.08.932.5 2.045.75 3.341.75 1.295 0 2.409-.25 3.341-.75.932-.508 1.644-1.201 2.136-2.08.5-.886.75-1.898.75-3.034v-15.182Zm8.083 29.818v-24h2.59v2.773h.319c.197-.303.469-.689.818-1.159.356-.477.863-.901 1.523-1.273.666-.378 1.568-.568 2.704-.568 1.47 0 2.765.368 3.886 1.102 1.122.735 1.997 1.777 2.625 3.125.629 1.349.944 2.94.944 4.773 0 1.849-.315 3.451-.944 4.807-.628 1.348-1.5 2.394-2.613 3.136-1.114.735-2.398 1.103-3.852 1.103-1.122 0-2.019-.186-2.694-.557-.674-.379-1.193-.807-1.556-1.284a17.162 17.162 0 0 1-.841-1.205h-.228v9.227h-2.681Zm2.636-15.272c0 1.318.193 2.481.579 3.488.387 1 .951 1.784 1.694 2.353.742.56 1.651.841 2.727.841 1.121 0 2.057-.296 2.807-.887.757-.598 1.325-1.401 1.704-2.409.387-1.015.58-2.144.58-3.386 0-1.228-.19-2.334-.568-3.318-.372-.993-.936-1.777-1.694-2.353-.75-.583-1.693-.875-2.829-.875-1.091 0-2.008.277-2.75.83-.743.545-1.303 1.31-1.682 2.295-.379.978-.568 2.118-.568 3.421Z"/></svg>

<svg width="1000" height="700" viewBox="0 0 1000 700" fill="none" xmlns="http://www.w3.org/2000/svg">
<rect width="1000" height="700" fill="white"/>
<rect width="800" height="500" transform="translate(100 100)" fill="white"/>
<rect x="349" y="306" width="303" height="88" fill="#888888"/>
<path d="M391.818 361V337.727H394.636V358.5H405.455V361H391.818ZM416.545 361.364C414.97 361.364 413.587 360.989 412.398 360.239C411.216 359.489 410.292 358.439 409.625 357.091C408.966 355.742 408.636 354.167 408.636 352.364C408.636 350.545 408.966 348.958 409.625 347.602C410.292 346.246 411.216 345.193 412.398 344.443C413.587 343.693 414.97 343.318 416.545 343.318C418.121 343.318 419.5 343.693 420.682 344.443C421.871 345.193 422.795 346.246 423.455 347.602C424.121 348.958 424.455 350.545 424.455 352.364C424.455 354.167 424.121 355.742 423.455 357.091C422.795 358.439 421.871 359.489 420.682 360.239C419.5 360.989 418.121 361.364 416.545 361.364ZM416.545 358.955C417.742 358.955 418.727 358.648 419.5 358.034C420.273 357.42 420.845 356.614 421.216 355.614C421.587 354.614 421.773 353.53 421.773 352.364C421.773 351.197 421.587 350.11 421.216 349.102C420.845 348.095 420.273 347.28 419.5 346.659C418.727 346.038 417.742 345.727 416.545 345.727C415.348 345.727 414.364 346.038 413.591 346.659C412.818 347.28 412.246 348.095 411.875 349.102C411.504 350.11 411.318 351.197 411.318 352.364C411.318 353.53 411.504 354.614 411.875 355.614C412.246 356.614 412.818 357.42 413.591 358.034C414.364 358.648 415.348 358.955 416.545 358.955ZM435.594 367.909C434.298 367.909 433.185 367.742 432.253 367.409C431.321 367.083 430.545 366.652 429.923 366.114C429.31 365.583 428.821 365.015 428.457 364.409L430.594 362.909C430.836 363.227 431.143 363.591 431.514 364C431.885 364.417 432.393 364.777 433.037 365.08C433.688 365.39 434.541 365.545 435.594 365.545C437.003 365.545 438.166 365.205 439.082 364.523C439.999 363.841 440.457 362.773 440.457 361.318V357.773H440.23C440.033 358.091 439.753 358.485 439.389 358.955C439.033 359.417 438.518 359.83 437.844 360.193C437.177 360.549 436.276 360.727 435.139 360.727C433.73 360.727 432.465 360.394 431.344 359.727C430.23 359.061 429.348 358.091 428.696 356.818C428.052 355.545 427.73 354 427.73 352.182C427.73 350.394 428.045 348.837 428.673 347.511C429.302 346.178 430.177 345.148 431.298 344.42C432.42 343.686 433.715 343.318 435.185 343.318C436.321 343.318 437.223 343.508 437.889 343.886C438.563 344.258 439.079 344.682 439.435 345.159C439.798 345.629 440.079 346.015 440.276 346.318H440.548V343.545H443.139V361.5C443.139 363 442.798 364.22 442.116 365.159C441.442 366.106 440.533 366.799 439.389 367.239C438.253 367.686 436.988 367.909 435.594 367.909ZM435.503 358.318C436.579 358.318 437.488 358.072 438.23 357.58C438.973 357.087 439.537 356.379 439.923 355.455C440.31 354.53 440.503 353.424 440.503 352.136C440.503 350.879 440.313 349.769 439.935 348.807C439.556 347.845 438.995 347.091 438.253 346.545C437.51 346 436.594 345.727 435.503 345.727C434.366 345.727 433.42 346.015 432.662 346.591C431.912 347.167 431.348 347.939 430.969 348.909C430.598 349.879 430.412 350.955 430.412 352.136C430.412 353.348 430.601 354.42 430.98 355.352C431.366 356.277 431.935 357.004 432.685 357.534C433.442 358.057 434.382 358.318 435.503 358.318ZM460.23 337.727V361H457.412V337.727H460.23ZM468.199 350.5V361H465.517V343.545H468.108V346.273H468.335C468.744 345.386 469.366 344.674 470.199 344.136C471.032 343.591 472.108 343.318 473.426 343.318C474.608 343.318 475.642 343.561 476.528 344.045C477.415 344.523 478.104 345.25 478.597 346.227C479.089 347.197 479.335 348.424 479.335 349.909V361H476.653V350.091C476.653 348.72 476.297 347.652 475.585 346.886C474.873 346.114 473.896 345.727 472.653 345.727C471.797 345.727 471.032 345.913 470.358 346.284C469.691 346.655 469.165 347.197 468.778 347.909C468.392 348.621 468.199 349.485 468.199 350.5ZM492.463 336.636L484.963 364.5H482.509L490.009 336.636H492.463ZM508.733 343.545C508.597 342.394 508.044 341.5 507.074 340.864C506.104 340.227 504.915 339.909 503.506 339.909C502.475 339.909 501.574 340.076 500.801 340.409C500.036 340.742 499.438 341.201 499.006 341.784C498.581 342.367 498.369 343.03 498.369 343.773C498.369 344.394 498.517 344.928 498.812 345.375C499.116 345.814 499.502 346.182 499.972 346.477C500.441 346.765 500.934 347.004 501.449 347.193C501.964 347.375 502.438 347.523 502.869 347.636L505.233 348.273C505.839 348.432 506.513 348.652 507.256 348.932C508.006 349.212 508.722 349.595 509.403 350.08C510.093 350.557 510.661 351.17 511.108 351.92C511.555 352.67 511.778 353.591 511.778 354.682C511.778 355.939 511.449 357.076 510.79 358.091C510.138 359.106 509.184 359.913 507.926 360.511C506.676 361.11 505.157 361.409 503.369 361.409C501.703 361.409 500.259 361.14 499.04 360.602C497.828 360.064 496.873 359.314 496.176 358.352C495.487 357.39 495.097 356.273 495.006 355H497.915C497.991 355.879 498.286 356.606 498.801 357.182C499.324 357.75 499.983 358.174 500.778 358.455C501.581 358.727 502.445 358.864 503.369 358.864C504.445 358.864 505.411 358.689 506.267 358.341C507.123 357.985 507.801 357.492 508.301 356.864C508.801 356.227 509.051 355.485 509.051 354.636C509.051 353.864 508.835 353.235 508.403 352.75C507.972 352.265 507.403 351.871 506.699 351.568C505.994 351.265 505.233 351 504.415 350.773L501.551 349.955C499.733 349.432 498.294 348.686 497.233 347.716C496.172 346.746 495.642 345.477 495.642 343.909C495.642 342.606 495.994 341.47 496.699 340.5C497.411 339.523 498.366 338.765 499.562 338.227C500.767 337.682 502.112 337.409 503.597 337.409C505.097 337.409 506.43 337.678 507.597 338.216C508.763 338.746 509.688 339.473 510.369 340.398C511.059 341.322 511.422 342.371 511.46 343.545H508.733ZM516.048 361V343.545H518.73V361H516.048ZM517.412 340.636C516.889 340.636 516.438 340.458 516.06 340.102C515.688 339.746 515.503 339.318 515.503 338.818C515.503 338.318 515.688 337.89 516.06 337.534C516.438 337.178 516.889 337 517.412 337C517.935 337 518.382 337.178 518.753 337.534C519.132 337.89 519.321 338.318 519.321 338.818C519.321 339.318 519.132 339.746 518.753 340.102C518.382 340.458 517.935 340.636 517.412 340.636ZM530.688 367.909C529.392 367.909 528.278 367.742 527.347 367.409C526.415 367.083 525.638 366.652 525.017 366.114C524.403 365.583 523.915 365.015 523.551 364.409L525.688 362.909C525.93 363.227 526.237 363.591 526.608 364C526.979 364.417 527.487 364.777 528.131 365.08C528.782 365.39 529.634 365.545 530.688 365.545C532.097 365.545 533.259 365.205 534.176 364.523C535.093 363.841 535.551 362.773 535.551 361.318V357.773H535.324C535.127 358.091 534.847 358.485 534.483 358.955C534.127 359.417 533.612 359.83 532.938 360.193C532.271 360.549 531.369 360.727 530.233 360.727C528.824 360.727 527.559 360.394 526.438 359.727C525.324 359.061 524.441 358.091 523.79 356.818C523.146 355.545 522.824 354 522.824 352.182C522.824 350.394 523.138 348.837 523.767 347.511C524.396 346.178 525.271 345.148 526.392 344.42C527.513 343.686 528.809 343.318 530.278 343.318C531.415 343.318 532.316 343.508 532.983 343.886C533.657 344.258 534.172 344.682 534.528 345.159C534.892 345.629 535.172 346.015 535.369 346.318H535.642V343.545H538.233V361.5C538.233 363 537.892 364.22 537.21 365.159C536.536 366.106 535.627 366.799 534.483 367.239C533.347 367.686 532.081 367.909 530.688 367.909ZM530.597 358.318C531.672 358.318 532.581 358.072 533.324 357.58C534.066 357.087 534.631 356.379 535.017 355.455C535.403 354.53 535.597 353.424 535.597 352.136C535.597 350.879 535.407 349.769 535.028 348.807C534.65 347.845 534.089 347.091 533.347 346.545C532.604 346 531.688 345.727 530.597 345.727C529.46 345.727 528.513 346.015 527.756 346.591C527.006 347.167 526.441 347.939 526.062 348.909C525.691 349.879 525.506 350.955 525.506 352.136C525.506 353.348 525.695 354.42 526.074 355.352C526.46 356.277 527.028 357.004 527.778 357.534C528.536 358.057 529.475 358.318 530.597 358.318ZM545.824 350.5V361H543.142V343.545H545.733V346.273H545.96C546.369 345.386 546.991 344.674 547.824 344.136C548.657 343.591 549.733 343.318 551.051 343.318C552.233 343.318 553.267 343.561 554.153 344.045C555.04 344.523 555.729 345.25 556.222 346.227C556.714 347.197 556.96 348.424 556.96 349.909V361H554.278V350.091C554.278 348.72 553.922 347.652 553.21 346.886C552.498 346.114 551.521 345.727 550.278 345.727C549.422 345.727 548.657 345.913 547.983 346.284C547.316 346.655 546.79 347.197 546.403 347.909C546.017 348.621 545.824 349.485 545.824 350.5ZM586.497 337.727H589.315V353.136C589.315 354.727 588.94 356.148 588.19 357.398C587.448 358.64 586.399 359.621 585.043 360.341C583.687 361.053 582.096 361.409 580.27 361.409C578.444 361.409 576.853 361.053 575.497 360.341C574.141 359.621 573.088 358.64 572.338 357.398C571.596 356.148 571.224 354.727 571.224 353.136V337.727H574.043V352.909C574.043 354.045 574.293 355.057 574.793 355.943C575.293 356.822 576.005 357.515 576.929 358.023C577.861 358.523 578.974 358.773 580.27 358.773C581.565 358.773 582.679 358.523 583.611 358.023C584.543 357.515 585.255 356.822 585.747 355.943C586.247 355.057 586.497 354.045 586.497 352.909V337.727ZM594.58 367.545V343.545H597.17V346.318H597.489C597.686 346.015 597.958 345.629 598.307 345.159C598.663 344.682 599.17 344.258 599.83 343.886C600.496 343.508 601.398 343.318 602.534 343.318C604.004 343.318 605.299 343.686 606.42 344.42C607.542 345.155 608.417 346.197 609.045 347.545C609.674 348.894 609.989 350.485 609.989 352.318C609.989 354.167 609.674 355.769 609.045 357.125C608.417 358.473 607.545 359.519 606.432 360.261C605.318 360.996 604.034 361.364 602.58 361.364C601.458 361.364 600.561 361.178 599.886 360.807C599.212 360.428 598.693 360 598.33 359.523C597.966 359.038 597.686 358.636 597.489 358.318H597.261V367.545H594.58ZM597.216 352.273C597.216 353.591 597.409 354.754 597.795 355.761C598.182 356.761 598.746 357.545 599.489 358.114C600.231 358.674 601.14 358.955 602.216 358.955C603.337 358.955 604.273 358.659 605.023 358.068C605.78 357.47 606.348 356.667 606.727 355.659C607.114 354.644 607.307 353.515 607.307 352.273C607.307 351.045 607.117 349.939 606.739 348.955C606.367 347.962 605.803 347.178 605.045 346.602C604.295 346.019 603.352 345.727 602.216 345.727C601.125 345.727 600.208 346.004 599.466 346.557C598.723 347.102 598.163 347.867 597.784 348.852C597.405 349.83 597.216 350.97 597.216 352.273Z" fill="white"/>
</svg>
